X:1751
T:The Wily Old Bachelor
M:C|
L:1/8
B:O'Neill's 1751
R:Hornpipe
Z:"Transcribed by Bob Safranek, rjs@gsp.org"
K:G
   (DC) | B,DGA BGDB, | CEAB cAFD | B,DGA BGc>B | (3ABG (3FGE (3DEC (3B,CA, |
          B,DGA BGDB, | CEAB cAFD | B,DGB ADEF  |   G2    B2    G2         :|
|: (ga) | bgeg  dgBg  | dgBg dgBg | bgeg  dgBg  |      fgab     a2   (ga)   |
          bgeg  dgBg  | cBAB cdef | gdBG  EcAF  |   G2    B2    G2         :|


